X:47
T:Miss Forbes's Farewell to Banff
Z:Jack Campin, http://www.campin.me.uk/
F:Jack Campin's Nine-Note Tunebook
% last edit 03-02-2013
C:Isaac Cooper
M:C|
L:1/8
Q:1/2=100
K:C % transposed from G
     CD |E2EG FEDC|E2G2 ABcA|G2GA GEDC|E2D2 D2
     CD |E2EG FEDC|E2G2 ABcA|G2GA GECD|E2C2 C2:|
   (3GAB|cBcd cBAG|AGAB c2BA|G2GA GEDC|E2D2 D2
[1 (3GAB|cBcd cBAG|AGAB c2BA|G2GA GECD|E2C2 C2:|
[2   CD |E2EG FEDC|E2G2 ABcA|G2GA GECD|E2C2 C2|]

